assets/flags-color/Gi.svg

<svg xmlns="http://www.w3.org/2000/svg" viewBox="0 0 512 512"><path fill="#f5f5f5" d="M0 0h512v512H0z"/><g fill="#ff4b55"><path d="M0 336.84h512V512H0zM388.495 198.496v-24.09h-24.09V114.18h12.045V90.09h-72.271v24.09h12.045v60.226h-36.135V90.09h12.045V66h-72.27v24.09h12.045v84.316h-36.136V114.18h12.045V90.09h-72.27v24.09h12.045v60.226h-24.09v24.09h12.045v96.361h-12.045v24.09h264.992v-24.09H376.45v-96.361z"/></g><g fill="#464655"><path d="M280.089 306.902h-48.18v-56.271c0-8.837 7.163-16 16-16h16.18c8.837 0 16 7.163 16 16v56.271zM255.999 138.271c-6.652 0-12.045 5.393-12.045 12.045v36.135h24.09v-36.135c0-6.653-5.393-12.045-12.045-12.045zM340.315 150.316c-6.652 0-12.045 5.393-12.045 12.045v24.09h24.09v-24.09c0-6.653-5.393-12.045-12.045-12.045zM171.683 150.316c-6.652 0-12.045 5.393-12.045 12.045v24.09h24.09v-24.09c0-6.653-5.393-12.045-12.045-12.045zM352.36 306.902h-48.18v-44.226c0-8.837 7.163-16 16-16h16.18c8.837 0 16 7.163 16 16v44.226zM207.818 306.902h-48.18v-44.226c0-8.837 7.163-16 16-16h16.18c8.837 0 16 7.163 16 16v44.226z"/></g><path fill="#ffe15a" d="M293.052 357.053a6.738 6.738 0 00-3-5.605l-27.316-18.211v-5.704l23.224-11.612a6.736 6.736 0 003.013-9.039 6.73 6.73 0 00-9.039-3.013L256 315.836l-23.934-11.967a6.735 6.735 0 00-9.039 3.013 6.736 6.736 0 003.013 9.039l23.224 11.612v5.704l-27.316 18.211a6.738 6.738 0 000 11.21l27.316 18.211v57.026h-26.947v10.316a6.733 6.733 0 006.737 6.737 6.734 6.734 0 005.954-3.579h14.257v13.474H234.89a6.734 6.734 0 00-5.836-3.368 6.733 6.733 0 00-6.737 6.737v10.105h26.947v6.737c0 3.724 3.013 6.737 6.737 6.737s6.737-3.013 6.737-6.737V380.87l27.316-18.211a6.744 6.744 0 002.998-5.606zm-37.053 12.111l-18.171-12.112 18.171-12.112 18.171 12.112-18.171 12.112z"/></svg>

<svg xmlns="http://www.w3.org/2000/svg" x="0" y="0" enable-background="new 0 0 512 512" version="1.1" viewBox="0 0 512 512" xml:space="preserve"><path fill="#F5F5F5" d="M0 0H512V512H0z"/><g fill="#FF4B55"><path d="M0 336.84H512V512H0z"/><path d="M388.495 198.496 388.495 174.406 364.405 174.406 364.405 114.18 376.45 114.18 376.45 90.09 304.179 90.09 304.179 114.18 316.224 114.18 316.224 174.406 280.089 174.406 280.089 90.09 292.134 90.09 292.134 66 219.864 66 219.864 90.09 231.909 90.09 231.909 174.406 195.773 174.406 195.773 114.18 207.818 114.18 207.818 90.09 135.548 90.09 135.548 114.18 147.593 114.18 147.593 174.406 123.503 174.406 123.503 198.496 135.548 198.496 135.548 294.857 123.503 294.857 123.503 318.947 388.495 318.947 388.495 294.857 376.45 294.857 376.45 198.496z"/></g><g fill="#464655"><path d="M280.089 306.902h-48.18v-56.271c0-8.837 7.163-16 16-16h16.18c8.837 0 16 7.163 16 16v56.271zM255.999 138.271c-6.652 0-12.045 5.393-12.045 12.045v36.135h24.09v-36.135c0-6.653-5.393-12.045-12.045-12.045zM340.315 150.316c-6.652 0-12.045 5.393-12.045 12.045v24.09h24.09v-24.09c0-6.653-5.393-12.045-12.045-12.045zM171.683 150.316c-6.652 0-12.045 5.393-12.045 12.045v24.09h24.09v-24.09c0-6.653-5.393-12.045-12.045-12.045zM352.36 306.902h-48.18v-44.226c0-8.837 7.163-16 16-16h16.18c8.837 0 16 7.163 16 16v44.226zM207.818 306.902h-48.18v-44.226c0-8.837 7.163-16 16-16h16.18c8.837 0 16 7.163 16 16v44.226z"/></g><path fill="#FFE15A" d="M293.052 357.053a6.738 6.738 0 0 0-3-5.605l-27.316-18.211v-5.704l23.224-11.612a6.736 6.736 0 0 0 3.013-9.039 6.73 6.73 0 0 0-9.039-3.013L256 315.836l-23.934-11.967a6.735 6.735 0 0 0-9.039 3.013 6.736 6.736 0 0 0 3.013 9.039l23.224 11.612v5.704l-27.316 18.211a6.738 6.738 0 0 0 0 11.21l27.316 18.211v57.026h-26.947v10.316a6.733 6.733 0 0 0 6.737 6.737 6.734 6.734 0 0 0 5.954-3.579h14.257v13.474H234.89a6.734 6.734 0 0 0-5.836-3.368 6.733 6.733 0 0 0-6.737 6.737v10.105h26.947v6.737c0 3.724 3.013 6.737 6.737 6.737s6.737-3.013 6.737-6.737V380.87l27.316-18.211a6.744 6.744 0 0 0 2.998-5.606zm-37.053 12.111-18.171-12.112 18.171-12.112 18.171 12.112-18.171 12.112z"/></svg>
